X: 5080
T: Bride's To Bed, The
R: reel
M: 4/4
K: Dmajor
|Addc defd|cAFA GEEE|Addc defa|geAe d2d:|
g|fede (3fga gf|gece gece|fede (3fga gf|gece d2 dg
gece (3fga gf|gece gece|fefa (3fga gf|geAe d2 d||

